svgs/themed_icon_calendar_8.svg

<svg height="192" width="192" xmlns="http://www.w3.org/2000/svg"><path d="M146 30H46c-8.837 0-16 7.163-16 16v100c0 8.837 7.163 16 16 16h75.373a16 16 0 0 0 11.313-4.686l24.628-24.628A16 16 0 0 0 162 121.373V46c0-8.837-7.163-16-16-16Z" stroke="#000" stroke-width="12" fill="none"/><path d="M96.014 120.792c-6.048 0-10.776-1.272-14.184-3.816-3.408-2.592-5.112-6.192-5.112-10.8 0-2.976.744-5.544 2.232-7.704 1.536-2.16 3.552-3.696 6.048-4.608-2.112-1.056-3.816-2.592-5.112-4.608-1.248-2.064-1.872-4.392-1.872-6.984 0-4.32 1.608-7.704 4.824-10.152 3.264-2.448 7.656-3.672 13.176-3.672 5.52 0 9.912 1.224 13.176 3.672 3.264 2.448 4.896 5.832 4.896 10.152 0 2.64-.648 4.992-1.944 7.056-1.248 2.064-2.928 3.576-5.04 4.536 2.496.96 4.488 2.52 5.976 4.68 1.488 2.16 2.232 4.704 2.232 7.632 0 4.608-1.704 8.208-5.112 10.8-3.408 2.544-8.136 3.816-14.184 3.816Zm0-30.744c2.448 0 4.344-.576 5.688-1.728 1.392-1.2 2.088-2.808 2.088-4.824s-.696-3.6-2.088-4.752c-1.344-1.152-3.24-1.728-5.688-1.728-2.448 0-4.344.576-5.688 1.728-1.344 1.152-2.016 2.736-2.016 4.752 0 2.016.672 3.624 2.016 4.824 1.344 1.152 3.24 1.728 5.688 1.728Zm0 22.176c6.048 0 9.072-2.28 9.072-6.84 0-4.512-3.024-6.768-9.072-6.768-2.928 0-5.184.576-6.768 1.728-1.536 1.104-2.304 2.784-2.304 5.04 0 2.256.768 3.96 2.304 5.112 1.584 1.152 3.84 1.728 6.768 1.728Z"/></svg>

<?xml version="1.0" encoding="UTF-8" standalone="no"?><svg xmlns:android="http://schemas.android.com/apk/res/android" height="192" width="192" xmlns="http://www.w3.org/2000/svg">
  <path d="M146,30H46C37.163,30 30,37.163 30,46V146C30,154.837 37.163,162 46,162H121.373C125.616,162 129.686,160.314 132.686,157.314L157.314,132.686C160.314,129.686 162,125.616 162,121.373V46C162,37.163 154.837,30 146,30Z" fill="#000000" fill-opacity="0.0" stroke="#000000" stroke-width="12"/>
  <path d="M96.014,120.792C89.966,120.792 85.238,119.52 81.83,116.976C78.422,114.384 76.718,110.784 76.718,106.176C76.718,103.2 77.462,100.632 78.95,98.472C80.486,96.312 82.502,94.776 84.998,93.864C82.886,92.808 81.182,91.272 79.886,89.256C78.638,87.192 78.014,84.864 78.014,82.272C78.014,77.952 79.622,74.568 82.838,72.12C86.102,69.672 90.494,68.448 96.014,68.448C101.534,68.448 105.926,69.672 109.19,72.12C112.454,74.568 114.086,77.952 114.086,82.272C114.086,84.912 113.438,87.264 112.142,89.328C110.894,91.392 109.214,92.904 107.102,93.864C109.598,94.824 111.59,96.384 113.078,98.544C114.566,100.704 115.31,103.248 115.31,106.176C115.31,110.784 113.606,114.384 110.198,116.976C106.79,119.52 102.062,120.792 96.014,120.792ZM96.014,90.048C98.462,90.048 100.358,89.472 101.702,88.32C103.094,87.12 103.79,85.512 103.79,83.496C103.79,81.48 103.094,79.896 101.702,78.744C100.358,77.592 98.462,77.016 96.014,77.016C93.566,77.016 91.67,77.592 90.326,78.744C88.982,79.896 88.31,81.48 88.31,83.496C88.31,85.512 88.982,87.12 90.326,88.32C91.67,89.472 93.566,90.048 96.014,90.048ZM96.014,112.224C102.062,112.224 105.086,109.944 105.086,105.384C105.086,100.872 102.062,98.616 96.014,98.616C93.086,98.616 90.83,99.192 89.246,100.344C87.71,101.448 86.942,103.128 86.942,105.384C86.942,107.64 87.71,109.344 89.246,110.496C90.83,111.648 93.086,112.224 96.014,112.224Z" fill="#000000"/>
</svg>
